X:1
T:Där borta
T:Ludvig Norman (1831-1885)
T:Text: C L Östergren
T:IV I våren
T:©PA Aglert Edition may be freely distributed, duplicated, performed and recorded
T:©PA Aglert Edition may be freely distributed, duplicated, performed and recorded
T:©PA Aglert Edition may be freely distributed, duplicated, performed and recorded
T:©PA Aglert Edition may be freely distributed, duplicated, performed and recorded
T:©PA Aglert Edition may be freely distributed, duplicated, performed and recorded
T:©PA Aglert Edition may be freely distributed, duplicated, performed and recorded
T:©PA Aglert Edition may be freely distributed, duplicated, performed and recorded
C:Ludvig Norman (1831-1885)
Z:©PA Aglert
Z:Edition may be freely distributed, duplicated, performed and recorded
%%score [ 1 2 3 4 ]
L:1/8
Q:1/4=105
M:3/4
K:C
V:1 treble nm="S"
V:2 treble nm="A"
V:3 treble-8 nm="T"
V:4 bass nm="B"
V:1
!f! !>!e>d cB cd | !>!e>d cB cd |!<(! (e2 g2) f2!<)! |!>(! e4 z2!>)! | B>B c2 e2 | ^G>G A2 c2 | %6
w: Ry- tan- de kring grå- a|te- gar stor- men fly- ger|nor- * dan|från:|sky- ar sking- ras,|och i ström- men|
 BB!<(! ^cc ^d>!<)!d | e6 |!pp! .e.d .c.B .c.d | .e.d .c.B .c.d | (e2!<(! g2) f2!<)! | %11
w: räm- na i- sar- na med|dån.|På ett lös- ryckt is- block|seg- lar är- lan fram bland|höl- * je-|
!>(! e4!>)! z2 |!mf! ee gf fe | d^d ef ec |!<(! B4!<)!!>(! c2!>)! | A4 z2 |!p! Bc de !>!dc | %17
w: svall,|rug- gig fjä- der- dräkt hon|speg- lar skäl- van- de i|klar kris-|tall.|Vils- na främ- ling, var- för|
 Bc de !>!dc | (B2 d2) c2 | B6 | BB e2 (dc) | cc f2 (ed) |!<(! cB!<)! c^c!>(! d>!>)!_B | A6 | %24
w: kom du hit till o- gäst-|vän- * lig|strand?|Var- för fly till *|is- grått nor- den *|från ditt fag- ra sol- skens-|land?|
 A3 A B^c | A^c e2 B2 | d^c Bc A^F | E2 ^F2!<(! ^G2 | AB c2!<)! d2 | f2 e2 dc |!>(! c3 B c!>)!A | %31
w: Ing- en löv- prydd|gren du fin- ner|till att vi- la vin- gen|på, blott en|mu- len skymt av|so- len vars- nar|ö- * * *|
!<(! (^G2 e4)!<)! |!f! e>d cB cd | !>!e>d cB cd | (e2 g2) f2 | e4 z2 | B>B c2 e2 | ^G>G A2 c2 | %38
w: då. *|Fru- sen mark och nak- na|lun- der, böl- jor än i|vin- * ter-|band,|frost och snö och|skar- pa i- lar|
 BB !>!^c>c ^dd |!<(! e6!<)! |!f! e3 e d^c | ^f>d B2 ^c2 | ed ^c2 B2 | A^G B4 | %44
w: kal- las vår i nor- dens|land.|Fly ut ö- ver|land och böl- ja|å- ter bort från|fru- sen pol;|
!p! AA!<(! Bd ^cd!<)! |"^cresc." (^de) e4 | ^c!<(!c ^dd e!<)!e |"^poco  a  poco" ^e2 ^f2 BB | %48
w: med vår läng- tan vi dig|föl- * ja,|med vår läng- tan vi dig|föl- ja hän mot|
 e3 ^f ef | (e2 ^c2)!f! BA | a4 ^c2 | ^f4 ^G2 | A4 z2 |] %53
w: ro- sor, sång och|sol, * hän mot|ro- sor,|sång och|sol.|
V:2
!f! !>!E>E EF EE | !>!E>E EF EE | E4 (AB) | c4 z2 | E>E E2 (E^F) | E>E E2 A2 | ^GG =GG ^F>F | %7
w: Ry- tan- de kring grå- a|te- gar stor- men fly- ger|nor- dan *|från:|sky- ar sking- ras, *|och i ström- men|räm- na i- sar- na med|
 (E2 ^F2 ^G2) |!pp! .E.E .E.F .E.G | .E.F .F.F .F.F |!<(! E4!<)! (FA) |!>(! c4!>)! z2 | %12
w: dån. * *|På ett lös- ryckt is- block|seg- lar är- lan fram bland|höl- je- *|svall,|
!mf! GG EF AA | AA AA AA |!<(! A4!<)!!>(! ^G2!>)! | E4 z2 |!p! ^GA Bc !>!BA | ^GA Bc !>!BA | %18
w: rug- gig fjä- der- dräkt hon|speg- lar skäl- van- de i|klar kris-|tall.|Vils- na främ- ling, var- för|kom du hit till o- gäst-|
 (^G2 B2) A2 | ^G6 | !courtesy!=GF E2 (FG) | AG F2 (GA) | _BG GG !>!B>G | %23
w: vän- * lig|strand?|Var- för fly till *|is- grått nor- den *|från ditt fag- ra sol- skens-|
!<(! (G2!<)!!>(! ^F2 =F2)!>)! | EE F2 F2 | EA ^G2 G2 | AA ^F^G E^C | B,2 E2!<(! E2 | %28
w: land? * *|Ing- en löv- prydd|gren du fin- ner|till att vi- la vin- gen|på, blott en|
 E^G A2!<)! B2 | B2 c2 GG | F4 F2 |!<(! E^F (^G2!<)! B2) |!f! E>E EF EE | !>!E>E EF EE | E4 (AB) | %35
w: mu- len skymt av|so- len vars- nar|ö- gat|då och då. *|Fru- sen mark och nak- na|lun- der, böl- jor än i|vin- ter- *|
 c4 z2 | E>E E2 (E^F) | E>E E2 A2 | ^GG !>!=G>G ^FF |!<(! (E2 ^F2!<)! ^G2) |!f! (E^F ^G)A EA | %41
w: band,|frost och snö och *|skar- pa i- lar|kal- las vår i nor- dens|land. * *|Fly * * ut ö- ver|
 A>^F ^G2 ^A2 | B^F F2 F2 | EE E4 |!p! AA A2 A2 |"^cresc." AA (BA) (BA) | AA AA AA | %47
w: land och böl- ja|å- ter bort från|fru- sen pol;|med vår läng- tan|vi dig föl- * ja, *|med vår läng- tan vi dig|
"^poco  a  poco" A2 A2 ^G^F | E^F E2 E2 | (E2 A2)!f! AA | A4 !courtesy!=G2 | ^F4 D2 | ^C4 z2 |] %53
w: föl- ja hän mot|ro- sor, sång och|sol, * hän mot|ro- sor,|sång och|sol.|
V:3
!f! !>!c>B A^G AB | !>!c>B A^G AB | (c2 e2) d2 | c4 z2 | ^G>G A2 c2 | B>B c2 e2 | BB ^AA =A>A | %7
w: Ry- tan- de kring grå- a|te- gar stor- men fly- ger|nor- * dan|från:|sky- ar sking- ras,|och i ström- men|räm- na i- sar- na med|
 (^G2 A2 B2) |!pp! .cB A!courtesy!=G AB | c^G AG AB | (c2 _B2) A2 |!>(! G4!>)! z2 |!mf! cB _BA Ac | %13
w: dån. * *|På ett lös- ryckt is- block|seg- lar är- lan fram bland|höl- * je-|svall,|rug- gig fjä- der- dräkt hon|
 cB cd cA |!<(! (d2 f2)!<)!!>(! e2!>)! | c4 z2 |!p! ee ee !>!f^d | ee ee !>!f^d | e4 A2 | e6 | %20
w: speg- lar skäl- van- de i|klar * kris-|tall.|Vils- na främ- ling, var- för|kom du hit till o- gäst-|vän- lig|strand?|
 BB G2 G2 | cc c2 c2 |!<(! cG c!<)!G !>!e>e |!<(! (e2!<)!!>(! A2 B2)!>)! | ^cc d2 d2 | ^cA B2 e2 | %26
w: Var- för fly till|is- grått nor- den|från ditt fag- ra sol- skens-|land? * *|Ing- en löv- prydd|gren du fin- ner|
 ^fe de ^cA | ^G2 A2 B2 | ed c2 g2 | d2 e2 ee | d4 c2 |!<(! BA (B2!<)! d2) |!f! c>B A^G AB | %33
w: till att vi- la vin- gen|på, blott en|mu- len skymt av|so- len vars- nar|ö- gat|då och då. *|Fru- sen mark och nak- na|
 !>!c>B A^G AB | (c2 e2) d2 | c4 z2 | ^G>G A2 c2 | B>B c2 e2 | BB !>!^A>A =AA | %39
w: lun- der, böl- jor än i|vin- * ter-|band,|frost och snö och|skar- pa i- lar|kal- las vår i nor- dens|
!<(! (^G2 A2 B2)!<)! |!f! ^c3 c de | d>^f f2 e2 | ^ff e2 d2 | ^cB ^G4 |!p! ee ^f2 A2 | %45
w: land. * *|Fly ut ö- ver|land och böl- ja|å- ter bort från|fru- sen pol;|med vår läng- tan|
"^cresc." ^cc (dc) (dc) | ee AA !courtesy!=cc |"^poco  a  poco" B2 B2 B^G | A^G A2 G2 | A4!f! AB | %50
w: vi dig föl- * ja, *|med vår läng- tan vi dig|föl- ja hän mot|ro- sor, sång och|sol, hän mot|
 ^c4 e2 | (e2 d2) B2 | A4 z2 |] %53
w: ro- sor,|sång * och|sol.|
V:4
!f! !>!A,,>B,, C,D, C,B,, | !>!A,,>B,, C,D, C,B,, | (A,,2 A,2) A,2 | A,4 z2 | B,,>B,, B,,2 B,,2 | %5
w: Ry- tan- de kring grå- a|te- gar stor- men fly- ger|nor- * dan|från:|sky- ar sking- ras,|
 B,,>B,, B,,2 B,,2 | B,,B,, B,,B,, B,,>B,, | E,6 |!pp! .A,,B,, C,C, C,C, | C,C, C,C, C,C, | %10
w: och i ström- men|räm- na i- sar- na med|dån.|På ett lös- ryckt is- block|seg- lar är- lan fram bland|
 C,4 F,2 |!>(! C,4!>)! z2 |!mf! C,C, ^C,D, D,E, | F,F, E,D, E,E, |!<(! E,6-!<)! | %15
w: höl- je-|svall,|rug- gig fjä- der- dräkt hon|speg- lar skäl- van- de i|klar|
!>(! E,C, A,,2 z2!>)! | z6 | z6 |!p! E,4 E,2 | E,4 E,2 | E,D, C,2 (D,E,) | F,E, D,2 (E,F,) | %22
w: * kris- tall.|||Vils- na|främ- ling,|Var- för fly till *|is- grått nor- den *|
!<(! E,E, E,!<)!E, !>!C,>C, |!<(! (^C,2!<)!!>(! D,2 ^D,2)!>)! | E,E, E,2 E,2 | E,E, E,2 E,2 | %26
w: från ditt fag- ra sol- skens-|land? * *|Ing- en löv- prydd|gren du fin- ner|
 E,E, E,E, A,,^C, | E,2 E,2 D,2 | C,B,, A,,2 G,,2 | G,,2 C,2 C,C, | D,4 D,2 |!<(! E,E,!<)! E,4 | %32
w: till att vi- la vin- gen|på, blott en|mu- len skymt av|so- len vars- nar|ö- gat|då och då.|
!f! A,,>B,, C,D, C,B,, | !>!A,,>B,, C,D, C,B,, | (A,,2 A,2) A,2 | A,4 z2 | B,,>B,, B,,2 B,,2 | %37
w: Fru- sen mark och nak- na|lun- der, böl- jor än i|vin- * ter-|band,|frost och snö och|
 B,,>B,, B,,2 B,,2 | B,,B,, !>!B,,>B,, B,,B,, |!<(! E,6!<)! |!f! A,,3 A,, B,,^C, | D,>D D2 ^C2 | %42
w: skar- pa i- lar|kal- las vår i nor- dens|land.|Fly ut ö- ver|land och böl- ja|
 B,B, B,2 B,,2 | E,E, (E,2 D,2) |!p! ^C,C, D,2 ^F,2 |"^cresc." !courtesy!=G,G, G,2 G,2 | %46
w: å- ter bort från|fru- sen pol; *|med vår läng- tan|vi dig föl- ja,|
 G,G, ^F,F, E,E, |"^poco  a  poco" ^D,2 D,2 =D,D, | ^C,D, C,2 D,2 | (^C,2 A,,2)!f! D,D, | %50
w: med vår läng- tan vi dig|föl- ja hän mot|ro- sor, sång och|sol, * hän mot|
 E,4 A,,2 | D,4 E,2 | A,,4 z2 |] %53
w: ro- sor,|sång och|sol.|

